X: 7
T: The Killarney Boys Of Pleasure
R: reel
M: 4/4
L: 1/8
K: Amin
|:A3G A2Bd|eBdB GABd|e3g a3g|(3efg dB GABG|
A3G A2 (3Bcd|eBdB GABd|e3g a3g|1 (3efg dB BAAG:|2(3efg dB BA A2||
|:ea a2 ea a2|gedB GABd|gbba b3a|gedB GA (3Bcd|
ea a2 ea a2|gedB GABd|gbba g3d|1(3efg dB BA A2:|2(3efg dB BAAG|


Tune 733	Setting 29217

